X: 1
T: Düştü Enginlere Bir İnce Hüzün
C: Refik Fersan
O: Turkey
F: https://github.com/MTG/SymbTr/releases/tag/v2.2
N: Also see http://ifdo.ca/~seymour/runabc/makams/index.html
N: segah--sarki--murekkepsofyan--dustu_enginlere--refik_fersan
N: makam= segah
N: form= sarki
N: usul= murekkepsofyan	Mürekkep Sofyan	12	8
M: 12/8
L: 1/16
K: C _1/4B _1/4e ^f
Q: 1/4=180
%%MIDI tuningsystem comma53
 [M: 12/8] [L: 1/16]G6B4c2 d4 B2d2 c2A2  | \
w:  ARANAĞME  |
G22z2  | g6g2 e2g2 f2d2 f2e2 c2e2  | \
w:   |   |
d22z2  |
w:   |
g6g2 ^3/4f2e2 ^1/4f2e2 d2c2 B2d2  | \
w:   |
c22B2  | d8-d2B2 c4 B2B2 ^A2{d}cB  |
w:   |   |
B22z2  | G6B4c2 d4 c2d2 c2{d}cB  | B22z2  | \
w:   |  Düş tü  *  en *  gin *  *  le  |  re   |
g8-g2f2 f4 e2ed e2f{c}d  |
w:  bir  *  in *  ce  *  *  hü  |
d6d2 B2d2 c2A2 c2B2 A2G2  | G6B4c2 d4 c2d2 c2{d}cB  | \
w:  zün   SAZ  |  Düş tü  *  en *  gin *  *  le  |
B22z2  |
w:  re   |
g8-g2f2 f4 e2ed e2f{c}d  | d12 d2.G2 .B2.d6  | \
w:  bir  *  in *  ce  *  *  hü  |  zün   SAZ  |
B4 d2d4c2 c4 B2B2 ^A2B2  |
w:  Sol *  du  *  gül *  ler  *  gi  |
c22B2  | e8-e2d2 d4 c2c4B2  | d12 d2.G2 .B2.d6  | \
w:  bi   |  sev *  da *  lı  yü  |  zün   SAZ  |
B4 d2d4c2 c4 B2B2 ^A2B2  |
w:  Sol *  du  *  gül *  ler  *  gi  |
c22B2  | e8-e2d2 d4 c2cB c2dB  | B22z2  | \
w:  bi   |  sev *  da *  lı  *  *  yü  |  zün    |
G6B4c2 d6e4f2  | g18z4g2  |
w:  Ner de  *  meh tâ  |  bı  ha  |
g8-g2f2 f4 e2e4f2  | g6g2 f2e2 d2e2 d2c2 B2A2  | \
w:  zin  *  gön *  lü mü  |  zün   SAZ  |
G6B4c2 d6e4f2  |
w:  Ner de  *  meh tâ  |
g18z4a2  | a8-a2g2 f4 e2{f}ed e2f{c}d  | \
w:  bı  ha  |  zin  *  gön *  *  lü *  *  mü  |
d12 d2G2 B2d6  | B4 d2d4c2 c4 B2B2 ^A2B2  |
w:  zün   SAZ  |  Sol *  du  *  gül *  ler  *  gi  |
c22B2  | e8-e2d2 d4 c2c4B2  | d12 d2.G2 .B2.d6  | \
w:  bi   |  sev *  da *  lı  yü  |  zün   SAZ  |
B4 d2d4c2 c4 B2B2 ^A2B2  |
w:  Sol *  du  *  gül *  ler  *  gi  |
c22B2  | e8-e2d2 d4 c2cB c2dB  | B22z2  | |





